SVG_Azure_All/Azure Firewall Web Category.svg

<?xml version="1.0" encoding="UTF-8" standalone="no"?>
<!-- Generated by Microsoft Visio, SVG Export Azure Firewall Web Category.svg Page-1 -->

<svg
   xmlns:dc="http://purl.org/dc/elements/1.1/"
   xmlns:cc="http://creativecommons.org/ns#"
   xmlns:rdf="http://www.w3.org/1999/02/22-rdf-syntax-ns#"
   xmlns:svg="http://www.w3.org/2000/svg"
   xmlns="http://www.w3.org/2000/svg"
   xmlns:sodipodi="http://sodipodi.sourceforge.net/DTD/sodipodi-0.dtd"
   xmlns:inkscape="http://www.inkscape.org/namespaces/inkscape"
   width="0.7665475in"
   height="0.7873745in"
   viewBox="0 0 55.191511 56.690947"
   xml:space="preserve"
   class="st6"
   version="1.1"
   id="svg55"
   sodipodi:docname="Azure Firewall Web Category.svg"
   style="font-size:12px;overflow:visible;color-interpolation-filters:sRGB;fill:none;fill-rule:evenodd;stroke-linecap:square;stroke-miterlimit:3"
   inkscape:version="0.92.5 (2060ec1f9f, 2020-04-08)"><metadata
   id="metadata59"><rdf:RDF><cc:Work
       rdf:about=""><dc:format>image/svg+xml</dc:format><dc:type
         rdf:resource="http://purl.org/dc/dcmitype/StillImage" /></cc:Work></rdf:RDF></metadata><sodipodi:namedview
   pagecolor="#ffffff"
   bordercolor="#666666"
   borderopacity="1"
   objecttolerance="10"
   gridtolerance="10"
   guidetolerance="10"
   inkscape:pageopacity="0"
   inkscape:pageshadow="2"
   inkscape:window-width="640"
   inkscape:window-height="480"
   id="namedview57"
   showgrid="false"
   inkscape:zoom="1.4193037"
   inkscape:cx="36.793684"
   inkscape:cy="37.786394"
   inkscape:window-x="0"
   inkscape:window-y="0"
   inkscape:window-maximized="0"
   inkscape:current-layer="svg55" />
	<style
   type="text/css"
   id="style2">
	<![CDATA[
		.st1 {fill:url(#grad0-6);stroke:none;stroke-linecap:butt;stroke-width:34}
		.st2 {fill:#8bc1fd;stroke:none;stroke-linecap:butt;stroke-width:34}
		.st3 {fill:#ffffff;stroke:none;stroke-linecap:butt;stroke-width:34}
		.st4 {fill:#d15900;stroke:none;stroke-linecap:butt;stroke-width:34}
		.st5 {fill:url(#grad0-16);stroke:none;stroke-linecap:butt;stroke-width:34}
		.st6 {fill:none;fill-rule:evenodd;font-size:12px;overflow:visible;stroke-linecap:square;stroke-miterlimit:3}
	]]>
	</style>

	<defs
   id="Patterns_And_Gradients">
		<linearGradient
   id="grad0-6"
   x1="-1.373129"
   y1="75.603526"
   x2="48.117287"
   y2="75.603526"
   gradientTransform="scale(1.003068,0.99694142)"
   gradientUnits="userSpaceOnUse">
			<stop
   offset="0"
   stop-color="#5ea0ef"
   stop-opacity="1"
   id="stop4" />
			<stop
   offset="1"
   stop-color="#0078d4"
   stop-opacity="1"
   id="stop6" />
		</linearGradient>
		<linearGradient
   id="grad0-16"
   x1="0"
   y1="101.14046"
   x2="23.905591"
   y2="101.14046"
   gradientTransform="scale(1.0026943,0.99731294)"
   gradientUnits="userSpaceOnUse">
			<stop
   offset="0.245"
   stop-color="#faa21d"
   stop-opacity="1"
   id="stop9" />
			<stop
   offset="1"
   stop-color="#f78d1e"
   stop-opacity="1"
   id="stop11" />
		</linearGradient>
	</defs>
	<g
   id="g53"
   transform="translate(-33.997191,-34.003405)">
		<title
   id="title15">Page-1</title>
		<g
   id="group8048-1"
   transform="translate(35.3265,-34.0157)">
			<title
   id="title17">Azure Firewall Web Category</title>
			<g
   id="group8049-2">
				<title
   id="title19">Sheet.8049</title>
				<g
   id="shape8050-3"
   transform="translate(0.397356,-7.08661)">
					<title
   id="title21">Sheet.8050</title>
					<path
   d="M 48.17,102.16 H 32.12 a 4.02111,4 -180 0 0 -3.83,3.05 5.40158,5.37323 -180 0 0 -0.1,1.42 h -0.6 a 3.98944,3.9685 -180 0 0 -3.95,3.94 v 14.14 A 24.7599,24.6299 0 0 1 8.22,80.61 l 0.25,-0.18 a 24.763,24.6331 0 0 1 39.7,21.73 z"
   class="st1"
   id="path23"
   inkscape:connector-curvature="0"
   style="fill:url(#grad0-6);stroke:none;stroke-width:34;stroke-linecap:butt" />
				</g>
				<g
   id="shape8051-7"
   transform="translate(0,-6.74016)">
					<title
   id="title26">Sheet.8051</title>
					<path
   d="M 46.51,89.21 46.26,88.74 A 25.0512,24.9197 -180 0 0 27.17,75.01 6.98469,6.94803 -180 0 0 26,74.88 C 25.27,74.82 24.54,74.76 23.78,74.76 A 23.1831,23.0614 -180 0 0 21.21,74.88 6.43377,6.4 -180 0 0 19.85,75.1 25.143,25.011 -180 0 0 1.3,88.74 H 1.25 v 0.03 a 25.0132,24.8819 -180 0 0 11.37,33.32 24.4369,24.3087 -180 0 0 8.01,2.4 0.402111,0.4 -180 0 0 0.189974,0.0315 A 26.6849,26.5449 -180 0 0 24.02,124.71 v -14.49 a 3.92929,3.90866 0 0 1 1.04,-2.64 V 91.14 h 10.26 a 36.095,35.9055 0 0 1 1.05,8.6 c -0.03,0.69 -0.07,1.38 -0.13,2.08 h 2.44 c 0.06,-0.7 0.09,-1.39 0.09,-2.08 a 39.5398,39.3323 -180 0 0 -0.98,-8.6 h 6.94 a 22.3757,22.2583 0 0 1 1.61,10.68 h 2.44 c 0.06,-0.7 0.09,-1.39 0.09,-2.08 A 24.82,24.6898 -180 0 0 46.51,89.21 Z M 2.82,91.13 H 9.4 a 39.5398,39.3323 -180 0 0 -0.98,8.6 30.1551,29.9969 -180 0 0 1.21,8 H 2.6 A 22.363,22.2457 0 0 1 2.82,91.14 Z m 1.17,-2.39 a 22.6923,22.5732 0 0 1 10.96,-9.79 29.3382,29.1843 -180 0 0 -4.91,9.79 z m 6.36,21.39 a 34.3979,34.2173 -180 0 0 6.18,10.96 22.6417,22.5228 0 0 1 -12.86,-10.96 z m 2.6,0 h 9.72 v 12.12 c -0.41,-0.03 -0.82,-0.03 -1.23,-0.06 a 24.7314,24.6016 0 0 1 -8.49,-12.06 z m -0.79,-2.4 a 27.7456,27.6 0 0 1 -1.3,-8 34.5119,34.3307 0 0 1 1.01,-8.6 h 10.8 v 16.6 z m 0.38,-18.99 a 18.5098,18.4126 0 0 1 7.95,-11.31 17.0248,16.9354 0 0 1 2.18,-0.22 V 88.74 Z M 25.08,88.71 V 77.24 c 0.5,0 0.98,0.07 1.49,0.1 2.56,0.94 6.04,5.04 8.1,11.37 z m 12.09,0.03 a 28.6195,28.4693 -180 0 0 -5.06,-9.98 22.8918,22.7717 0 0 1 11.46,9.98 z"
   class="st2"
   id="path28"
   inkscape:connector-curvature="0"
   style="fill:#8bc1fd;stroke:none;stroke-width:34;stroke-linecap:butt" />
				</g>
				<g
   id="shape8052-9"
   transform="translate(25.3622)">
					<title
   id="title31">Sheet.8052</title>
					<path
   d="m 28.5,99.01 v 18.64 a 2.60897,2.59528 0 0 1 -2.6,2.59 h -1.93 v 1.89 a 2.6153,2.60157 0 0 1 -2.63,2.58 H 2.63 A 2.6343,2.62047 0 0 1 0,122.13 v -18.74 a 2.6438,2.62992 0 0 1 1.93,-2.4 1.70343,1.69449 0 0 1 0.7,-0.12 h 1.93 v -1.86 a 2.6343,2.62047 0 0 1 2.6,-2.62 H 25.9 a 2.51398,2.50079 0 0 1 1.84,0.79 2.61214,2.59843 0 0 1 0.76,1.83 z"
   class="st3"
   id="path33"
   inkscape:connector-curvature="0"
   style="fill:#ffffff;stroke:none;stroke-width:34;stroke-linecap:butt" />
				</g>
				<g
   id="shape8053-11"
   transform="translate(29.9216,-4.47244)">
					<title
   id="title36">Sheet.8053</title>
					<path
   d="m 23.94,103.48 v 18.65 a 2.60897,2.59528 0 0 1 -2.6,2.58 H 2.6 A 2.55198,2.53858 0 0 1 0.51,123.64 2.50448,2.49134 0 0 1 0,122.13 v -18.65 a 2.6343,2.62047 0 0 1 2.6,-2.61 h 18.74 a 2.51398,2.50079 0 0 1 1.84,0.78 2.61214,2.59843 0 0 1 0.76,1.83 z"
   class="st4"
   id="path38"
   inkscape:connector-curvature="0"
   style="fill:#d15900;stroke:none;stroke-width:34;stroke-linecap:butt" />
				</g>
				<g
   id="shape8054-13"
   transform="translate(25.3622)">
					<title
   id="title41">Sheet.8054</title>
					<path
   d="m 23.97,103.48 v 18.65 a 2.6153,2.60157 0 0 1 -2.63,2.58 H 2.63 A 2.6343,2.62047 0 0 1 0,122.13 v -18.74 a 2.6438,2.62992 0 0 1 1.93,-2.4 1.70343,1.69449 0 0 1 0.7,-0.12 h 18.71 a 1.84274,1.83307 0 0 1 0.6,0.09 0.459103,0.456693 0 0 1 0.221636,0.063 2.5963,2.58268 0 0 1 1.808364,2.457 z"
   class="st5"
   id="path43"
   inkscape:connector-curvature="0"
   style="fill:url(#grad0-16);stroke:none;stroke-width:34;stroke-linecap:butt" />
				</g>
				<g
   id="shape8055-17"
   transform="translate(28.8736,-5.54016)">
					<title
   id="title46">Sheet.8055</title>
					<path
   d="m 16.32,122.19 a 0.633245,0.629921 0 0 1 0.601583,0.62992 L 16.92,124.08 a 0.633245,0.629921 0 0 1 -0.604749,0.62992 L 4.84,124.71 A 0.633245,0.629921 0 0 1 4.238417,124.08008 L 4.24,122.82 a 0.633245,0.629921 0 0 1 0.604749,-0.62992 z m -16.3,1.91 a 0.614248,0.611024 -180 0 0 0.614248,0.61102 L 1.94,124.71 a 0.614248,0.611024 -180 0 0 0.614248,-0.62992 L 2.55,122.78 A 0.614248,0.611024 -180 0 0 1.916755,122.16898 L 0.61,122.17 a 0.614248,0.611024 -180 0 0 -0.614248,0.61102 z m 4.82,-7.03 a 0.633245,0.629921 -180 0 0 -0.604749,0.62992 L 4.24,118.96 a 0.633245,0.629921 -180 0 0 0.604749,0.62992 L 16.32,119.59 a 0.633245,0.629921 -180 0 0 0.604749,-0.62992 L 16.92,117.7 a 0.633245,0.629921 -180 0 0 -0.604749,-0.62992 z m -4.82,1.92 a 0.614248,0.611024 -180 0 0 0.614248,0.61102 L 1.93,119.6 a 0.633245,0.629921 -180 0 0 0.633245,-0.61102 L 2.57,117.69 A 0.633245,0.629921 -180 0 0 1.936755,117.06008 L 0.63,117.06 a 0.633245,0.629921 -180 0 0 -0.614248,0.62992 z m 4.82,-7.02 a 0.633245,0.629921 -180 0 0 -0.604749,0.62992 L 4.24,113.86 a 0.633245,0.629921 -180 0 0 0.604749,0.62992 L 16.32,114.49 a 0.633245,0.629921 -180 0 0 0.604749,-0.62992 L 16.92,112.6 a 0.633245,0.629921 -180 0 0 -0.601583,-0.62992 z m -4.82,1.89 a 0.614248,0.611024 -180 0 0 0.614248,0.62992 L 1.93,114.49 a 0.633245,0.629921 -180 0 0 0.633245,-0.62992 L 2.57,112.56 A 0.633245,0.629921 -180 0 0 1.936755,111.94898 L 0.63,111.95 a 0.614248,0.611024 -180 0 0 -0.614248,0.61102 z"
   class="st3"
   id="path48"
   inkscape:connector-curvature="0"
   style="fill:#ffffff;stroke:none;stroke-width:34;stroke-linecap:butt" />
				</g>
			</g>
		</g>
	</g>
</svg>

<?xml version="1.0" encoding="UTF-8" standalone="no"?>
<!DOCTYPE svg PUBLIC "-//W3C//DTD SVG 1.1//EN" "http://www.w3.org/Graphics/SVG/1.1/DTD/svg11.dtd">
<!-- Generated by Microsoft Visio, SVG Export Azure Firewall Web Category.svg Page-1 -->
<svg xmlns="http://www.w3.org/2000/svg" xmlns:xlink="http://www.w3.org/1999/xlink" xmlns:ev="http://www.w3.org/2001/xml-events"
		width="1.7109in" height="1.73207in" viewBox="0 0 123.185 124.709" xml:space="preserve" color-interpolation-filters="sRGB"
		class="st6">
	<style type="text/css">
	<![CDATA[
		.st1 {fill:url(#grad0-6);stroke:none;stroke-linecap:butt;stroke-width:34}
		.st2 {fill:#8bc1fd;stroke:none;stroke-linecap:butt;stroke-width:34}
		.st3 {fill:#ffffff;stroke:none;stroke-linecap:butt;stroke-width:34}
		.st4 {fill:#d15900;stroke:none;stroke-linecap:butt;stroke-width:34}
		.st5 {fill:url(#grad0-16);stroke:none;stroke-linecap:butt;stroke-width:34}
		.st6 {fill:none;fill-rule:evenodd;font-size:12px;overflow:visible;stroke-linecap:square;stroke-miterlimit:3}
	]]>
	</style>

	<defs id="Patterns_And_Gradients">
		<linearGradient id="grad0-6" x1="0" y1="0" x2="1" y2="0" gradientTransform="rotate(90 0.5 0.5)">
			<stop offset="0" stop-color="#5ea0ef" stop-opacity="1"/>
			<stop offset="1" stop-color="#0078d4" stop-opacity="1"/>
		</linearGradient>
		<linearGradient id="grad0-16" x1="0" y1="0" x2="1" y2="0" gradientTransform="rotate(90 0.5 0.5)">
			<stop offset="0.245" stop-color="#faa21d" stop-opacity="1"/>
			<stop offset="1" stop-color="#f78d1e" stop-opacity="1"/>
		</linearGradient>
	</defs>
	<g>
		<title>Page-1</title>
		<g id="group7853-1" transform="translate(35.3265,-34.0157)">
			<title>Azure Firewall Web Category</title>
			<g id="group7854-2">
				<title>Sheet.7854</title>
				<g id="shape7855-3" transform="translate(0.397356,-7.08661)">
					<title>Sheet.7855</title>
					<path d="M48.17 102.16 L32.12 102.16 A4.02111 4 -180 0 0 28.29 105.21 A5.40158 5.37323 -180 0 0 28.19 106.63
								 L27.59 106.63 A3.98944 3.9685 -180 0 0 23.64 110.57 L23.64 124.71 A24.7599 24.6299 0 0 1 8.22 80.61
								 L8.47 80.43 A24.763 24.6331 0 0 1 48.17 102.16 Z" class="st1"/>
				</g>
				<g id="shape7856-7" transform="translate(0,-6.74016)">
					<title>Sheet.7856</title>
					<path d="M46.51 89.21 L46.26 88.74 A25.0512 24.9197 -180 0 0 27.17 75.01 A6.98469 6.94803 -180 0 0 26 74.88 C25.27
								 74.82 24.54 74.76 23.78 74.76 A23.1831 23.0614 -180 0 0 21.21 74.88 A6.43377 6.4 -180 0 0 19.85
								 75.1 A25.143 25.011 -180 0 0 1.3 88.74 L1.25 88.74 L1.25 88.77 A25.0132 24.8819 -180 0 0 12.62 122.09
								 A24.4369 24.3087 -180 0 0 20.63 124.49 a0.402111 0.4 -180 0 0 0.189974 0.0314961 A26.6849 26.5449
								 -180 0 0 24.02 124.71 L24.02 110.22 A3.92929 3.90866 0 0 1 25.06 107.58 L25.06 91.14 L35.32 91.14
								 A36.095 35.9055 0 0 1 36.37 99.74 C36.34 100.43 36.3 101.12 36.24 101.82 L38.68 101.82 C38.74 101.12
								 38.77 100.43 38.77 99.74 A39.5398 39.3323 -180 0 0 37.79 91.14 L44.73 91.14 A22.3757 22.2583 0 0
								 1 46.34 101.82 L48.78 101.82 C48.84 101.12 48.87 100.43 48.87 99.74 A24.82 24.6898 -180 0 0 46.51
								 89.21 ZM2.82 91.13 L9.4 91.13 A39.5398 39.3323 -180 0 0 8.42 99.73 A30.1551 29.9969 -180 0 0 9.63
								 107.73 L2.6 107.73 A22.363 22.2457 0 0 1 2.82 91.14 L2.82 91.13 ZM3.99 88.74 A22.6923 22.5732 0
								 0 1 14.95 78.95 A29.3382 29.1843 -180 0 0 10.04 88.74 L3.99 88.74 ZM10.35 110.13 A34.3979 34.2173
								 -180 0 0 16.53 121.09 A22.6417 22.5228 0 0 1 3.67 110.13 L10.35 110.13 ZM12.95 110.13 L22.67 110.13
								 L22.67 122.25 C22.26 122.22 21.85 122.22 21.44 122.19 A24.7314 24.6016 0 0 1 12.95 110.13 ZM12.16
								 107.73 A27.7456 27.6 0 0 1 10.86 99.73 A34.5119 34.3307 0 0 1 11.87 91.13 L22.67 91.13 L22.67 107.73
								 L12.16 107.73 ZM12.54 88.74 A18.5098 18.4126 0 0 1 20.49 77.43 A17.0248 16.9354 0 0 1 22.67 77.21
								 L22.67 88.74 L12.54 88.74 ZM25.08 88.71 L25.08 77.24 C25.58 77.24 26.06 77.31 26.57 77.34 C29.13
								 78.28 32.61 82.38 34.67 88.71 L25.08 88.71 ZM37.17 88.74 A28.6195 28.4693 -180 0 0 32.11 78.76 A22.8918
								 22.7717 0 0 1 43.57 88.74 L37.17 88.74 Z" class="st2"/>
				</g>
				<g id="shape7857-9" transform="translate(25.3622,1.42109E-14)">
					<title>Sheet.7857</title>
					<path d="M28.5 99.01 L28.5 117.65 A2.60897 2.59528 0 0 1 25.9 120.24 L23.97 120.24 L23.97 122.13 A2.6153 2.60157
								 0 0 1 21.34 124.71 L2.63 124.71 A2.6343 2.62047 0 0 1 0 122.13 L0 103.39 A2.6438 2.62992 0 0 1 1.93
								 100.99 A1.70343 1.69449 0 0 1 2.63 100.87 L4.56 100.87 L4.56 99.01 A2.6343 2.62047 0 0 1 7.16 96.39
								 L25.9 96.39 A2.51398 2.50079 0 0 1 27.74 97.18 A2.61214 2.59843 0 0 1 28.5 99.01 Z" class="st3"/>
				</g>
				<g id="shape7858-11" transform="translate(29.9216,-4.47244)">
					<title>Sheet.7858</title>
					<path d="M23.94 103.48 L23.94 122.13 A2.60897 2.59528 0 0 1 21.34 124.71 L2.6 124.71 A2.55198 2.53858 0 0 1 0.51
								 123.64 A2.50448 2.49134 0 0 1 -0 122.13 L0 103.48 A2.6343 2.62047 0 0 1 2.6 100.87 L21.34 100.87
								 A2.51398 2.50079 0 0 1 23.18 101.65 A2.61214 2.59843 0 0 1 23.94 103.48 Z" class="st4"/>
				</g>
				<g id="shape7859-13" transform="translate(25.3622,1.42109E-14)">
					<title>Sheet.7859</title>
					<path d="M23.97 103.48 L23.97 122.13 A2.6153 2.60157 0 0 1 21.34 124.71 L2.63 124.71 A2.6343 2.62047 0 0 1 -0
								 122.13 L0 103.39 A2.6438 2.62992 0 0 1 1.93 100.99 A1.70343 1.69449 0 0 1 2.63 100.87 L21.34 100.87
								 A1.84274 1.83307 0 0 1 21.94 100.96 a0.459103 0.456693 0 0 1 0.221636 0.0629921 A2.5963 2.58268
								 0 0 1 23.97 103.48 Z" class="st5"/>
				</g>
				<g id="shape7860-17" transform="translate(28.8736,-5.54016)">
					<title>Sheet.7860</title>
					<path d="M16.32 122.19 a0.633245 0.629921 0 0 1 0.601583 0.629921 L16.92 124.08 a0.633245 0.629921 0 0 1 -0.604749
								 0.629921 L4.84 124.71 a0.633245 0.629921 0 0 1 -0.601583 -0.629921 L4.24 122.82 a0.633245 0.629921
								 0 0 1 0.604749 -0.629921 L16.32 122.19 ZM0.02 124.1 a0.614248 0.611024 -180 0 0 0.614248 0.611024
								 L1.94 124.71 a0.614248 0.611024 -180 0 0 0.614248 -0.629921 L2.55 122.78 a0.614248 0.611024 -180
								 0 0 -0.633245 -0.611024 L0.61 122.17 a0.614248 0.611024 -180 0 0 -0.614248 0.611024 L0.02 124.1
								 ZM4.84 117.07 a0.633245 0.629921 -180 0 0 -0.604749 0.629921 L4.24 118.96 a0.633245 0.629921 -180
								 0 0 0.604749 0.629921 L16.32 119.59 a0.633245 0.629921 -180 0 0 0.604749 -0.629921 L16.92 117.7
								 a0.633245 0.629921 -180 0 0 -0.604749 -0.629921 L4.84 117.07 ZM0.02 118.99 a0.614248 0.611024 -180
								 0 0 0.614248 0.611024 L1.93 119.6 a0.633245 0.629921 -180 0 0 0.633245 -0.611024 L2.57 117.69 a0.633245
								 0.629921 -180 0 0 -0.633245 -0.629921 L0.63 117.06 a0.633245 0.629921 -180 0 0 -0.614248 0.629921
								 L0.02 118.99 ZM4.84 111.97 a0.633245 0.629921 -180 0 0 -0.604749 0.629921 L4.24 113.86 a0.633245
								 0.629921 -180 0 0 0.604749 0.629921 L16.32 114.49 a0.633245 0.629921 -180 0 0 0.604749 -0.629921
								 L16.92 112.6 a0.633245 0.629921 -180 0 0 -0.601583 -0.629921 L4.84 111.97 ZM0.02 113.86 a0.614248
								 0.611024 -180 0 0 0.614248 0.629921 L1.93 114.49 a0.633245 0.629921 -180 0 0 0.633245 -0.629921
								 L2.57 112.56 a0.633245 0.629921 -180 0 0 -0.633245 -0.611024 L0.63 111.95 a0.614248 0.611024 -180
								 0 0 -0.614248 0.611024 L0.02 113.86 Z" class="st3"/>
				</g>
			</g>
		</g>
	</g>
</svg>
